app/src/assets/list/stundendauer.svg

<svg xmlns="http://www.w3.org/2000/svg" xmlns:xlink="http://www.w3.org/1999/xlink" preserveAspectRatio="xMidYMid meet" viewBox="0 0 640 640" width="50" height="50"><style><![CDATA[.B{fill-opacity:0}.C{stroke:#000}.D{fill:#fff}.E{stroke-opacity:0}]]></style><defs><path d="M171.42 121.5l35.44-42.04 157-36.75 32.66 33.67-86 213.72-139.1-168.6z" id="A"/><path d="M88.56 336.1l45.33 91.85 81.13 78.74h39.37L309 290.77l-208.5 3.4-11.93 41.93z" id="B"/><path d="M168.07 115.4L141.05 145l-29.82 19.3-22.67 129.86 220.44-3.4L168.07 115.4z" id="C"/><path d="M142.98 475.2C94.63 426.84 68 362.56 68 294.18s26.63-132.67 74.98-181.02C191.33 64.8 255.62 38.18 324 38.18s132.67 26.62 181.02 74.98C553.37 161.5 580 225.8 580 294.18s-26.63 132.66-74.98 181.02c-48.35 48.35-112.64 74.98-181.02 74.98s-132.67-26.63-181.02-74.98zm21.2-340.83C121.5 177.06 98 233.8 98 294.18c0 60.36 23.5 117.12 66.2 159.8 42.7 42.7 99.44 66.2 159.8 66.2s117.12-23.5 159.8-66.2c42.68-42.68 66.2-99.44 66.2-159.8 0-60.37-23.5-117.12-66.2-159.8-42.7-42.7-99.44-66.2-159.8-66.2s-117.12 23.5-159.8 66.2z" id="D"/><path d="M309 98.2h30v40.03h-30V98.2z" id="E"/><path d="M423.6 173.33l28.3-28.3 21.2 21.2-28.3 28.3-21.2-21.2z" id="F"/><path d="M479.93 279.18h40.03v30h-40.03v-30z" id="G"/><path d="M423.58 415.04l21.2-21.2 28.3 28.3-21.2 21.2-28.3-28.3z" id="H"/><path d="M309 450.1h30v40.03h-30V450.1z" id="I"/><path d="M174.77 422.1l28.3-28.3 21.2 21.2-28.3 28.3-21.2-21.2z" id="J"/><path d="M128.04 279.18h40.03v30h-40.03v-30z" id="K"/><path d="M174.8 166.22L196 145l28.3 28.3-21.2 21.2-28.3-28.3z" id="L"/><path d="M429.9 309.18H309v-120.9h30v90.9h90.9v30z" id="M"/></defs><use xlink:href="#A" opacity=".6" fill="#29963c"/><use xlink:href="#A" opacity=".6" class="B C"/><use xlink:href="#B" opacity=".53" fill="#924c4c"/><use xlink:href="#B" opacity=".53" class="B C"/><use xlink:href="#C" opacity=".74" fill="#ad4040"/><use xlink:href="#C" opacity=".74" class="B C"/><use xlink:href="#D" class="D"/><use xlink:href="#D" class="B C E"/><use xlink:href="#E" class="D"/><use xlink:href="#E" class="B C E"/><use xlink:href="#F" class="D"/><use xlink:href="#F" class="B C E"/><use xlink:href="#G" class="D"/><use xlink:href="#G" class="B C E"/><use xlink:href="#H" class="D"/><use xlink:href="#H" class="B C E"/><use xlink:href="#I" class="D"/><use xlink:href="#I" class="B C E"/><use xlink:href="#J" class="D"/><use xlink:href="#J" class="B C E"/><use xlink:href="#K" class="D"/><use xlink:href="#K" class="B C E"/><use xlink:href="#L" class="D"/><use xlink:href="#L" class="B C E"/><use xlink:href="#M" class="D"/><use xlink:href="#M" class="B C E"/><use xlink:href="#N" class="D"/><use xlink:href="#N" class="B C"/></svg>

<?xml version="1.0" encoding="UTF-8" standalone="no"?>
<!DOCTYPE svg PUBLIC "-//W3C//DTD SVG 1.1//EN" "http://www.w3.org/Graphics/SVG/1.1/DTD/svg11.dtd">
<svg version="1.1" xmlns="http://www.w3.org/2000/svg" xmlns:xlink="http://www.w3.org/1999/xlink" preserveAspectRatio="xMidYMid meet" viewBox="0 0 640 640" width="50" height="50"><defs><path d="M171.42 121.51L206.86 79.47L363.87 42.72L396.53 76.39L310.53 290.11L171.42 121.51Z" id="b1pTyg5rVs"></path><path d="M88.56 336.11L133.89 427.96L215.02 506.7L254.39 506.7L309 290.77L100.49 294.18L88.56 336.11Z" id="aJtlAfwdJ"></path><path d="M168.07 115.4L141.05 145.01L111.23 164.32L88.56 294.18L309 290.77L168.07 115.4Z" id="b1ngCAiLIr"></path><path d="M142.98 475.2C94.63 426.84 68 362.56 68 294.18C68 225.8 94.63 161.51 142.98 113.16C191.33 64.8 255.62 38.18 324 38.18C392.38 38.18 456.67 64.8 505.02 113.16C553.37 161.51 580 225.8 580 294.18C580 362.56 553.37 426.84 505.02 475.2C456.67 523.55 392.38 550.18 324 550.18C255.62 550.18 191.33 523.55 142.98 475.2ZM164.19 134.37C121.51 177.06 98 233.81 98 294.18C98 354.54 121.51 411.3 164.19 453.98C206.88 496.67 263.63 520.18 324 520.18C384.37 520.18 441.12 496.67 483.81 453.98C526.49 411.3 550 354.54 550 294.18C550 233.81 526.49 177.06 483.81 134.37C441.12 91.68 384.37 68.18 324 68.18C263.63 68.18 206.88 91.68 164.19 134.37Z" id="a2gz9RYMka"></path><path d="M309 98.21L339 98.21L339 138.24L309 138.24L309 98.21Z" id="b1ILvTfjGn"></path><path d="M423.6 173.33L451.91 145.03L473.12 166.24L444.81 194.54L423.6 173.33Z" id="gO7Scfq6k"></path><path d="M479.93 279.18L519.96 279.18L519.96 309.18L479.93 309.18L479.93 279.18Z" id="bFtiGMST"></path><path d="M423.58 415.04L444.79 393.83L473.09 422.14L451.88 443.35L423.58 415.04Z" id="b4SPIJYaaO"></path><path d="M309 450.11L339 450.11L339 490.14L309 490.14L309 450.11Z" id="a7fG6er4T2"></path><path d="M174.77 422.11L203.08 393.81L224.29 415.02L195.98 443.32L174.77 422.11Z" id="kXoiR21R6"></path><path d="M128.04 279.18L168.07 279.18L168.07 309.18L128.04 309.18L128.04 279.18Z" id="djO5hM7yA"></path><path d="M174.8 166.22L196.01 145.01L224.31 173.31L203.1 194.52L174.8 166.22Z" id="b1gtHo5Wof"></path><path d="M429.89 309.18L309 309.18L309 188.28L339 188.28L339 279.18L429.89 279.18L429.89 309.18Z" id="c1KYWvPLQh"></path><path d="" id="d1tBcAMVQ"></path></defs><g><g><g><use xlink:href="#b1pTyg5rVs" opacity="0.61" fill="#29963c" fill-opacity="1"></use><g><use xlink:href="#b1pTyg5rVs" opacity="0.61" fill-opacity="0" stroke="#000000" stroke-width="1" stroke-opacity="1"></use></g></g><g><use xlink:href="#aJtlAfwdJ" opacity="0.53" fill="#924c4c" fill-opacity="1"></use><g><use xlink:href="#aJtlAfwdJ" opacity="0.53" fill-opacity="0" stroke="#000000" stroke-width="1" stroke-opacity="1"></use></g></g><g><use xlink:href="#b1ngCAiLIr" opacity="0.74" fill="#ad4040" fill-opacity="1"></use><g><use xlink:href="#b1ngCAiLIr" opacity="0.74" fill-opacity="0" stroke="#000000" stroke-width="1" stroke-opacity="1"></use></g></g><g><use xlink:href="#a2gz9RYMka" opacity="1" fill="#ffffff" fill-opacity="1"></use><g><use xlink:href="#a2gz9RYMka" opacity="1" fill-opacity="0" stroke="#000000" stroke-width="1" stroke-opacity="0"></use></g></g><g><use xlink:href="#b1ILvTfjGn" opacity="1" fill="#ffffff" fill-opacity="1"></use><g><use xlink:href="#b1ILvTfjGn" opacity="1" fill-opacity="0" stroke="#000000" stroke-width="1" stroke-opacity="0"></use></g></g><g><use xlink:href="#gO7Scfq6k" opacity="1" fill="#ffffff" fill-opacity="1"></use><g><use xlink:href="#gO7Scfq6k" opacity="1" fill-opacity="0" stroke="#000000" stroke-width="1" stroke-opacity="0"></use></g></g><g><use xlink:href="#bFtiGMST" opacity="1" fill="#ffffff" fill-opacity="1"></use><g><use xlink:href="#bFtiGMST" opacity="1" fill-opacity="0" stroke="#000000" stroke-width="1" stroke-opacity="0"></use></g></g><g><use xlink:href="#b4SPIJYaaO" opacity="1" fill="#ffffff" fill-opacity="1"></use><g><use xlink:href="#b4SPIJYaaO" opacity="1" fill-opacity="0" stroke="#000000" stroke-width="1" stroke-opacity="0"></use></g></g><g><use xlink:href="#a7fG6er4T2" opacity="1" fill="#ffffff" fill-opacity="1"></use><g><use xlink:href="#a7fG6er4T2" opacity="1" fill-opacity="0" stroke="#000000" stroke-width="1" stroke-opacity="0"></use></g></g><g><use xlink:href="#kXoiR21R6" opacity="1" fill="#ffffff" fill-opacity="1"></use><g><use xlink:href="#kXoiR21R6" opacity="1" fill-opacity="0" stroke="#000000" stroke-width="1" stroke-opacity="0"></use></g></g><g><use xlink:href="#djO5hM7yA" opacity="1" fill="#ffffff" fill-opacity="1"></use><g><use xlink:href="#djO5hM7yA" opacity="1" fill-opacity="0" stroke="#000000" stroke-width="1" stroke-opacity="0"></use></g></g><g><use xlink:href="#b1gtHo5Wof" opacity="1" fill="#ffffff" fill-opacity="1"></use><g><use xlink:href="#b1gtHo5Wof" opacity="1" fill-opacity="0" stroke="#000000" stroke-width="1" stroke-opacity="0"></use></g></g><g><use xlink:href="#c1KYWvPLQh" opacity="1" fill="#ffffff" fill-opacity="1"></use><g><use xlink:href="#c1KYWvPLQh" opacity="1" fill-opacity="0" stroke="#000000" stroke-width="1" stroke-opacity="0"></use></g></g><g><use xlink:href="#d1tBcAMVQ" opacity="1" fill="#ffffff" fill-opacity="1"></use><g><use xlink:href="#d1tBcAMVQ" opacity="1" fill-opacity="0" stroke="#000000" stroke-width="1" stroke-opacity="1"></use></g></g></g></g></svg>
